X: 147
T: No_22_Corn_Dance_Song_(l).krn
N: Derived from No_22_Corn_Dance_Song_(l).krn
%%abc-version 2.0
%%abcx-abcm2ps-target-version 5.9.1 (29 Sep 2008)
%%abc-creator hum2abc beta
%%abcx-conversion-date 2019/03/15 08:38:45
%%humdrum-veritas 3880491542
%%humdrum-veritas-data 4014709432
%%linebreak <none>
%%barnumbers 0
L: 1/8
M: 2/4
K: F clef=bass
[K:clef=bass][M:2/4]C2A,A, [I:setbarnb 2]||  
[M:3/4]CCC4 ||  
[M:2/4]D3/C/ A,A, | 
G,F, F, z ||  
[M:3/4]A,3G, A,F, ||  
[M:2/4]F,3D, ||  
[M:3/4]F,F,F,3z ||  
[M:2/4](F,2D,)D, ||  
[M:3/4]C,C,C,2z2 ||  
[M:2/4]C,2D,C, ||  
[M:3/4]A,,A,,A,,2z2 ||  
[M:2/4]C,2A,,A,, ||  
[M:3/4]C,C,C,2z2 | 
[M:2/4]C,2C,C, | 
C,C,C,2 :|]  



